X: 7894
T: Con Cassidy's
R: jig
M: 6/8
K: Amajor
d|c2c cBc|e2d B2c|A2A AGA|cdc B2c|
d2d dcd|f2e edc|B2B BAB|A3 A2:|
|:g|a3 efg|a2e c2e|edc cBA|cdc B2g|
a3 efg|a2a fga|gbe af^d|fee e2:|

